lib/nrk-some-email.svg

<svg xmlns="http://www.w3.org/2000/svg" viewBox="0 0 15 15"><path fill="currentColor" d="M13 4.723L9.7 7.692l1.85 1.967-2.311-1.551L7.5 9.673 5.761 8.108l-2.31 1.551 1.848-1.967L2 4.722v5.775c0 .27.224.503.501.503H12.5a.506.506 0 0 0 .501-.503V4.723zM12.308 4H2.692L7.5 8.327 12.308 4zM1 4.503C1 3.674 1.676 3 2.501 3H12.5C13.329 3 14 3.681 14 4.503v5.994c0 .829-.676 1.503-1.501 1.503H2.5C1.671 12 1 11.319 1 10.497V4.503z"/></svg>

<svg xmlns="http://www.w3.org/2000/svg" viewBox="0 0 15 15">
  <path d="M13 4.72L9.7 7.7l1.85 1.97L9.24 8.1 7.5 9.67 5.76 8.11l-2.3 1.55L5.3 7.69 2 4.72v5.78c0 .27.22.5.5.5h10a.5.5 0 0 0 .5-.5V4.72zM12.3 4H2.7l4.8 4.33L12.3 4zM1 4.5C1 3.67 1.68 3 2.5 3h10c.83 0 1.5.68 1.5 1.5v6c0 .83-.68 1.5-1.5 1.5h-10A1.5 1.5 0 0 1 1 10.5v-6z"/>
</svg>
